X: 347
T:Bergerette savoysienne
N: Derived from Jos2806-Bergerette_savoysienne.krn
C: Josquin des Prez
%%abc-version 2.0
%%abcx-abcm2ps-target-version 5.9.1 (29 Sep 2008)
%%abc-creator hum2abc beta
%%abcx-conversion-date 2019/02/12 16:15:54
%%abc-edited-by Jesse Rodin
%%abc-edited-by Jesse Rodin; Victoria Chang 2011/07/27
%%abcx-initial-encoding-date 2011/07/27/
%%humdrum-veritas 1460012945
%%humdrum-veritas-data 1664004954
%%linebreak <none>
%%barnumbers 0
L: 1/4
M: 2/1
Q: 1/2=120
%%staves [1 2 3 4]
V: 1 clef=treble
V: 2 clef=treble-8
V: 3 clef=treble-8
V: 4 clef=bass
K: C
[V:1] z8 | 
[V:2] c8 | 
[V:3] z8 | 
[V:4] C8 | 
[V:1] z8 | 
[V:2] d4e4 | 
[V:3] z8 | 
[V:4] B,4C4 | 
[V:1] z8 | 
[V:2] e4e2e2- | 
[V:3] z8 | 
[V:4] A,4G,2C2- | 
[V:1] z8 | 
[V:2] edc4BA | 
[V:3] c8 | 
[V:4] CB,A,G,A,4 | 
[V:1] z8 | 
[V:2] B4z2c2- | 
[V:3] d4e4 | 
[V:4] G,6E,2 | 
[V:1] z8 | 
[V:2] cdefg2c2 | 
[V:3] e4e2e2- | 
[V:4] A,2G,3F,E,D, | 
[V:1] c8 | 
[V:2] gfedc4 | 
[V:3] edc4BA | 
[V:4] C,8 | 
[V:1] d4e4 | 
[V:2] G2B2A4 | 
[V:3] B4z2c2- | 
[V:4] z8 | 
[V:1] e4e2e2- | 
[V:2] G2c3Bcd | 
[V:3] cdefg2c2 | 
[V:4] C,8 | 
[V:1] edc4BA | 
[V:2] efg4^f2 | 
[V:3] gfedc3B | 
[V:4] C4A,4 | 
[V:1] B8 | 
[V:2] g8 | 
[V:3] d8 | 
[V:4] G,8 | 
[V:1] z8 | 
[V:2] z8 | 
[V:3] f6ed | 
[V:4] z4F,4- | 
[V:1] z8 | 
[V:2] z8 | 
[V:3] c2d2G4 | 
[V:4] F,2F,2E,4 | 
[V:1] z8 | 
[V:2] f6f2 | 
[V:3] A6B2 | 
[V:4] D,6C,D, | 
[V:1] z8 | 
[V:2] e4d4- | 
[V:3] c4f4- | 
[V:4] C,6B,,C, | 
[V:1] z8 | 
[V:2] d2cdc4- | 
[V:3] f2f2e4 | 
[V:4] B,,2C,B,,C,4 | 
[V:1] f6f2 | 
[V:2] c2BcB2cB | 
[V:3] d6cd | 
[V:4] z8 | 
[V:1] e4d4- | 
[V:2] c4g4- | 
[V:3] c6Bc | 
[V:4] z8 | 
[V:1] d2cdc4- | 
[V:2] g4f4 | 
[V:3] B2cBc4 | 
[V:4] G,4A,4 | 
[V:1] c2BcB2cB | 
[V:2] g8 | 
[V:3] d8 | 
[V:4] G,8 | 
[V:1] !fermata!c8 :|]  
[V:2] !fermata!e8 :|]  
[V:3] !fermata!c8 :|]  
[V:4] !fermata!C,8 :|]  
[V:1] z8 | 
[V:2] c4c4 | 
[V:3] e4e4 | 
[V:4] z8 | 
[V:1] z8 | 
[V:2] B4G4 | 
[V:3] d4g4 | 
[V:4] z8 | 
[V:1] z8 | 
[V:2] A4A4 | 
[V:3] g4^f4 | 
[V:4] z8 | 
[V:1] e4e4 | 
[V:2] G4c4 | 
[V:3] g8- | 
[V:4] C,8 | 
[V:1] d4g4 | 
[V:2] B4G4 | 
[V:3] g8 | 
[V:4] G,4E,4 | 
[V:1] g4^f4 | 
[V:2] d8 | 
[V:3] a8 | 
[V:4] D,8 | 
[V:1] g8 | 
[V:2] z2G3ABG | 
[V:3] g8 | 
[V:4] G,8 | 
[V:1] z8 | 
[V:2] c6c2 | 
[V:3] f6f2 | 
[V:4] A,6A,2 | 
[V:1] z8 | 
[V:2] c4B4- | 
[V:3] f4e4- | 
[V:4] A,4G,4- | 
[V:1] z8 | 
[V:2] B2A2A4- | 
[V:3] e2d2d4- | 
[V:4] G,4F,4 | 
[V:1] z8 | 
[V:2] A4G4 | 
[V:3] d4^c4 | 
[V:4] E,8 | 
[V:1] f6f2 | 
[V:2] A6Bc | 
[V:3] d4a4- | 
[V:4] D,8 | 
[V:1] f4e4- | 
[V:2] d4e4 | 
[V:3] a4g4- | 
[V:4] z8 | 
[V:1] e2d2d4- | 
[V:2] c4d4 | 
[V:3] g4f4 | 
[V:4] z8 | 
[V:1] d4^c4 | 
[V:2] A8 | 
[V:3] e8 | 
[V:4] z4A,4 | 
[V:1] d4z2d2 | 
[V:2] z4d4 | 
[V:3] d8 | 
[V:4] B,4B,4 | 
[V:1] e6d2 | 
[V:2] c2e3fg2 | 
[V:3] z4z2d2 | 
[V:4] C6B,2 | 
[V:1] c4B4 | 
[V:2] cdefg4 | 
[V:3] e6d2 | 
[V:4] A,4G,4 | 
[V:1] c2c2d4 | 
[V:2] e2f2d2g2 | 
[V:3] c4B4 | 
[V:4] A,4z2G,2 | 
[V:1] z4z2d2 | 
[V:2] e2f2d2g2- | 
[V:3] c2c2d4 | 
[V:4] A,4B,4 | 
[V:1] e6d2 | 
[V:2] gfedc2G2 | 
[V:3] z4z2d2 | 
[V:4] C6B,2 | 
[V:1] c4B4 | 
[V:2] cdefg4 | 
[V:3] e6d2 | 
[V:4] A,4G,4 | 
[V:1] c2c2d4 | 
[V:2] e2c2g4 | 
[V:3] c4B4 | 
[V:4] A,4G,4 | 
[V:1] z8 | 
[V:2] e4f4 | 
[V:3] c2c2d4 | 
[V:4] A,4D,4 | 
[V:1] d6c2 | 
[V:2] d3cB2A2 | 
[V:3] z8 | 
[V:4] z4G,4- | 
[V:1] B2A2G4- | 
[V:2] G6AB | 
[V:3] g6f2 | 
[V:4] G,2F,2E,2D,2 | 
[V:1] G2ABc4- | 
[V:2] c4g4- | 
[V:3] e2d2c4 | 
[V:4] C,8 | 
[V:1] c2BAB4 | 
[V:2] g8 | 
[V:3] d8 | 
[V:4] G,8 | 
[V:1] c4c4 | 
[V:2] e4z2e2 | 
[V:3] c8 | 
[V:4] C,4C4 | 
[V:1] d6c2 | 
[V:2] d3cB2A2 | 
[V:3] G8 | 
[V:4] z4G,4- | 
[V:1] B2A2G4- | 
[V:2] G6AB | 
[V:3] g6f2 | 
[V:4] G,2F,2E,2D,2 | 
[V:1] G2ABc4- | 
[V:2] c4g4- | 
[V:3] e2d2c4 | 
[V:4] C,2C4B,A, | 
[V:1] c2BAB4 | 
[V:2] g2a2g4 | 
[V:3] d8 | 
[V:4] G,2F,2G,4 | 
[V:1] c8 |]  
[V:2] e8 |]  
[V:3] c8 |]  
[V:4] C,8 |]  



